X: 479
%
U:~=!turn!
T: Mrs. L. Stewart of the Island of Java
C:Marshall
O:Scotland
B:Keith Norman MacDonald : "The Skye collection of the best reels & strathspeys extant" : 1887
Z:Ralph Palmer
R:Reel
M:C|
L:1/8
K:C
~c2 (ec) (Gc)(ec) | FdEc DG,B,G, | ~c2 (ec) (Gc)(ec) | fage c/c/c c2 :| ~E2 (Gc) EcGc | ~F2 (Ac) FcAc |
~G2 (Bd) GdBd | fdec (TcB)(AG) | ~E2 (Gc) EcGc | ~F2 (Ac) FcAc | fagf edec | GcBd c/c/c c2 |]


